X:1
T:Llef, LM
T:Llef, LM
T:Griffith Hugh Jones, 1890
T:Public Domain Courtesy of the Cyber Hymnal™
C:Griffith Hugh Jones, 1890
Z:Public Domain
Z:Courtesy of the Cyber Hymnal™
%%score ( 1 2 ) ( 3 4 )
L:1/8
Q:1/4=103
M:2/4
K:G
V:1 treble 
V:2 treble 
V:3 bass 
V:4 bass 
V:1
 E2 EE | [EG]3 [EA] | [EG]2 [^DF]2 | E4 | [EG]2 [FA][FA] | [GB]3 [EB] | [^DA]2 [EG]2 | [^DF]4 | %8
 B2 BB | [Fd]3 [Ge] | [Fd]2 [^A^c]2 | B4 | [EB]2 [^DA][DA] | [EG]3 [EA] | [EG]2 [^DF]2 | E4 |] %16
V:2
 E2 EE | x4 | x4 | E4 | x4 | x4 | x4 | x4 | B2 BB | x4 | x4 | B4 | x4 | x4 | x4 | E4 |] %16
V:3
 E,2 E,E, | [E,B,]3 [A,,C] | [B,,B,]2 [B,,A,]2 | [E,G,]4 | [E,B,]2 [D,D][D,D] | [G,D]3 G, | %6
 [F,A,]2 [E,^A,]2 | [B,,B,]4 | B,2 B,B, | B,3 [E,B,] | [F,B,]2 [F,E]2 | [B,D]4 | %12
 [G,B,]2 [F,B,][F,B,] | [E,B,]3 [A,,C] | [B,,B,]2 [B,,A,]2 | [E,G,]4 |] %16
V:4
 E,2 E,E, | x4 | x4 | x4 | x4 | x3 G, | x4 | x4 | B,2 B,B, | B,3 x | x4 | x4 | x4 | x4 | x4 | x4 |] %16

